X:939
T:Three Merry Sisters of Fate, The
R:reel
S:David Lombardi (version 1)
H:See also "The Merry Sisters Of Fate", #865
D:Altan: The Red Crow (version 2)
Z:id:hn-reel-939
M:C|
L:1/8
K:Bdor
|: defd efde | fB~B2 fBce |1 defd efdf | eA~A2 eAce :|2 defd ef^ga | eA~A2 eAce ||
|: a2^ga faea | fB~B2 fBce | a2^ga faed |1 cA~A2 eAce :|2 cdef =gece :|
P:version 2
|: defd edce | fB~B2 fBce | defd edcd |1 eA~A2 eAce :|2 eA~A2 eAcd ||
|: ea^ga fece | fB~B2 fece |1 a2^ga fecd | eA~A2 eAcd :|2 a2^ga feaf | edef =gece ||

